X:2
T:Ma Preference
C:Julien Clerc
L:1/8
M:C
I:linebreak $
K:C
"C" E2 G G4 A |"Gm" _BA GF"A7" ED ^C2 |"Dm" D2 F F4 G |$"G7" _AG F_E DC B,2 ||
[K:Eb]"Cm" C2 E E4 z |"F7" F2 G G4 z |"Fm" ec ec z2 G2 |$"Bb7" B8 ||[K:Gb]"Gb" (3B2 d2 d2 z2 d2 |
"Abm" ed cB"Db7" (3c2 B2 A2 |"Ebm" (3G2 B2 B2 z2 B2 |"Fø" cB AG"Bb7" A4 |$
"Gb" (3B2 d2 d2 z2 d2 |"Abm" ed cB"Db7" (3c2 B2 A2 |"Ebm" (3G2 B2 B2 z2 B2 |
"Fø" cB AG"Bb7" B4 :|[K:Eb]"Eb" G2 B B4 c |$"Bbm" _dc BA"C7" (3G2 F2 =E2 |
"Fm" (3F2 A2 A2 z2 B2 |"Bb7" _cB A_G (3F2 E2 D2 ||$[K:Gb]"Ebm" E2 G G4 z |"Ab7" A2 B B4 z |
"Abm" ge ge z2 B2 |"Db7" d8 |"Abm" ge ge z2 c2 |"Db7" z8 |]

